svgs/duotone/audio-description.svg

<svg xmlns="http://www.w3.org/2000/svg" viewBox="0 0 576 512"><!-- Font Awesome Pro 6.0.0-alpha2 by @fontawesome - https://fontawesome.com License - https://fontawesome.com/license (Commercial License) --><defs><style>.fa-secondary{opacity:.4}</style></defs><path d="M170.836 280H213.164L192 237.672L170.836 280ZM384 208H352V304H384C410.469 304 432 282.469 432 256S410.469 208 384 208ZM512 32H64C28.654 32 0 60.652 0 96V416C0 451.346 28.654 480 64 480H512C547.346 480 576 451.346 576 416V96C576 60.652 547.346 32 512 32ZM274.719 349.469C271.281 351.188 267.625 352 264.031 352C255.219 352 246.75 347.141 242.531 338.734L233.164 320H150.836L141.469 338.734C135.562 350.594 121.156 355.438 109.281 349.469C97.406 343.531 92.594 329.125 98.531 317.266L170.531 173.266C178.656 157.016 205.344 157.016 213.469 173.266L285.469 317.266C291.406 329.125 286.594 343.531 274.719 349.469ZM384 352H328C314.75 352 304 341.25 304 328V184C304 170.75 314.75 160 328 160H384C436.938 160 480 203.062 480 256S436.938 352 384 352Z" class="fa-secondary"/><path d="M213.481 173.266C205.356 157.016 178.668 157.016 170.543 173.266L98.543 317.266C92.606 329.125 97.418 343.531 109.293 349.469C121.168 355.438 135.575 350.594 141.481 338.734L150.848 320H233.176L242.543 338.734C246.762 347.141 255.231 352 264.043 352C267.637 352 271.293 351.188 274.731 349.469C286.606 343.531 291.418 329.125 285.481 317.266L213.481 173.266ZM170.848 280L192.012 237.672L213.176 280H170.848ZM384.012 160H328.012C314.762 160 304.012 170.75 304.012 184V328C304.012 341.25 314.762 352 328.012 352H384.012C436.95 352 480.012 308.938 480.012 256S436.95 160 384.012 160ZM384.012 304H352.012V208H384.012C410.481 208 432.012 229.531 432.012 256S410.481 304 384.012 304Z" class="fa-primary"/></svg>

<svg xmlns="http://www.w3.org/2000/svg" viewBox="0 0 576 512"><!--! Font Awesome Pro 6.3.0 by @fontawesome - https://fontawesome.com License - https://fontawesome.com/license (Commercial License) Copyright 2023 Fonticons, Inc. --><defs><style>.fa-secondary{opacity:.4}</style></defs><path class="fa-primary" d="M213.5 173.3c-8.125-16.25-34.81-16.25-42.94 0l-72 144c-5.938 11.86-1.125 26.27 10.75 32.2c11.88 5.969 26.28 1.125 32.19-10.73L150.8 320H233.2l9.367 18.73C246.8 347.1 255.2 352 264 352c3.594 0 7.25-.8125 10.69-2.531c11.88-5.938 16.69-20.34 10.75-32.2L213.5 173.3zM170.8 280L192 237.7L213.2 280H170.8zM384 160h-56c-13.25 0-24 10.75-24 24v144c0 13.25 10.75 24 24 24H384c52.94 0 96-43.06 96-96S436.9 160 384 160zM384 304h-32v-96h32c26.47 0 48 21.53 48 48S410.5 304 384 304z"/><path class="fa-secondary" d="M170.8 280H213.2L192 237.7L170.8 280zM384 208h-32v96h32c26.47 0 48-21.53 48-48S410.5 208 384 208zM512 32H64C28.65 32 0 60.65 0 96v320c0 35.35 28.65 64 64 64h448c35.35 0 64-28.65 64-64V96C576 60.65 547.3 32 512 32zM274.7 349.5C271.3 351.2 267.6 352 264 352c-8.812 0-17.28-4.859-21.5-13.27L233.2 320H150.8l-9.367 18.73c-5.906 11.86-20.31 16.7-32.19 10.73c-11.88-5.938-16.69-20.34-10.75-32.2l72-144c8.125-16.25 34.81-16.25 42.94 0l72 144C291.4 329.1 286.6 343.5 274.7 349.5zM384 352h-56c-13.25 0-24-10.75-24-24v-144C304 170.8 314.8 160 328 160H384c52.94 0 96 43.06 96 96S436.9 352 384 352z"/></svg>
